!!!!SEGMENT: pl-wnifc--6730-n--001-011_sowinski-wojciech--chants-religieux-de-la-pologne-op-93-chant-pour-la-ressurection-en-ce-jour-christ-ressuscite.krn
!!!cenid: 18xx:4025
!!!COM: Sowiński, Wojciech
!!!COM-rismID: pe30008543
!!!CDT: ~1803-1880/03/05
!!!CNT:
!!!GTL: Chants religieux de la Pologne op. 93
!!!OTL: Chant pour la ressurection/En ce jour Christ ressuscité
!!!OMV: 011
!!!PDT: 1830
!!!AGN:
!!!SMS-siglum: PL-Wnifc
!!!SMS-shelfmark: 6730/n
!!!SMS-shelfwork: 001-011 G
!!!SMS-variant:
!!!SMS-altvar:
!!!NIFC-rismSourceID: 1001138221
!!!NIFC-rismChildID: 1001138233
!!!NIFC-islandoraID: nifc:213350
!!!URL-pdf-islandora: https://repozytorium.nifc.pl/islandora/object/nifc%3A213350/datastream/PDF/view
!!!URL-scan: https://polish.musicsources.pl/pl/lokalizacje/galeria/druki-muzyczne/16913 @EN{Scan on Polish Music Sources Website} @PL{Skany w portalu Dziedzictwo Muzyki Polskiej w otwartym dostępie}
!!!IIIF:
!!!ONB-nifc: UWAGA: str. 45-46
!!!AIN: 2 organ 2 soprn
!!!key: F
**kern	**kern	**dynam	**kern	**text	**dynam	**kern	**text	**dynam
*part4	*part3	*part3	*part2	*part2	*part2	*part1	*part1	*part1
*staff4	*staff3	*	*staff2	*staff2	*	*staff1	*staff1	*
*I"Organo	*I"ORGUE.	*	*I"2o. DESSUS.	*	*	*I"1er. DESSUS.	*	*
*	*I'org	*	*I'2 D	*	*	*I'1 D	*	*
*Iorgan	*Iorgan	*	*Isoprn	*	*	*Isoprn	*	*
*ICklav	*ICklav	*	*ICvox	*	*	*ICvox	*	*
*clefF4	*clefG2	*	*clefG2	*	*	*clefG2	*	*
*k[b-]	*k[b-]	*	*k[b-]	*	*	*k[b-]	*	*
*F:	*F:	*	*F:	*	*	*F:	*	*
*M4/4	*M4/4	*	*M4/4	*	*	*M4/4	*	*
*met(c)	*met(c)	*	*met(c)	*	*	*met(c)	*	*
=1	=1	=1	=1	=1	=1	=1	=1	=1
!	!LO:TX:a:t=Mouvt. modéré.	!	!	!	!	!LO:TX:a:t=Mouvt. modéré.	!	!
1DD 1D	4d/ 4f	.	1r	.	.	1r	.	.
.	8.d/L 8.f	.	.	.	.	.	.	.
.	16e/Jk 16g	.	.	.	.	.	.	.
.	4f/ 4a	.	.	.	.	.	.	.
.	4f/ 4a	.	.	.	.	.	.	.
=2	=2	=2	=2	=2	=2	=2	=2	=2
1DD 1D	1f 1a 1dd	f	1r	.	.	1r	.	.
=3	=3	=3	=3	=3	=3	=3	=3	=3
2DD/ 2D	4d/ 4f	p	4d/	En	.	4f/	En	.
.	8d/L 8f	.	(8d/L	ce	.	(8f/L	ce	.
.	8e/J 8g	.	8e/J)	.	.	8g/J)	.	.
2DD/ 2D	4f/ 4a	.	4f/	jour	.	4a/	jour	.
.	4f/ 4a	.	4f/	Christ	.	4a/	Christ	.
=4	=4	=4	=4	=4	=4	=4	=4	=4
*^	*	*	*	*	*	*	*	*
2C#X/	2DD\	8e/L 8g	.	(8e/L	res-	.	(8g/L	res-	.
.	.	8f/J 8a	.	8f/J)	.	.	8a/J)	.	.
.	.	4e/ 4g	.	4e/	-sus-	.	4g/	-sus-	.
4D/	4DD\	4d/ 4f	.	4d/	-ci-	.	4f/	-ci-	.
4AA/	4AA\	4c#X/ 4e	.	4c#X/	-té	.	4e/	-té	.
!LO:LB:g=original	!LO:LB:g=original	!LO:LB:g=original	!	!LO:LB:g=original	!	!	!LO:LB:g=original	!	!
=5	=5	=5	=5	=5	=5	=5	=5	=5	=5
4A/	2AA\	4c#X/ 4e	.	4c#X/	Va	.	4e/	Va	.
4G/	.	4c#/ 4e	.	4c#/	re-	.	4e/	re-	.
4D/ 4F	2ryy	4d/ 4f 4a	.	4f/	-gner	.	4a/	-gner	.
!LO:TUP:b	!	!LO:TUP:b	!	!LO:TUP:b	!	!	!LO:TUP:b	!	!
12AA/L	.	12e/L 12g	.	(12e/L	dans	.	(12g/L	dans	.
12BBn/	.	12d/ 12f	.	12d/	.	.	12f/	.	.
12C#X/J	.	12A/J 12e	.	12c#/J)	.	.	12e/J)	.	.
=6	=6	=6	=6	=6	=6	=6	=6	=6	=6
2ryy	4D\	8d/L	.	4d/	l'é-	.	8d/L	l'é-	.
.	.	8e/J	.	.	.	.	8e/J	.	.
.	4BB-\	4d/ 4f	.	4d/	-ter-	.	4f/	-ter-	.
8A/L	4AA\	4c#X/	.	4A/	-ni-	.	4c#X/	-ni-	.
8G/J	.	.	.	.	.	.	.	.	.
4F/	4D;\	4d;/	.	4d;/	-té	.	4d;/	-té	.
*v	*v	*	*	*	*	*	*	*	*
=7	=7	=7	=7	=7	=7	=7	=7	=7
*	*^	*	*	*	*	*	*	*
!	!	!	!	!	!	!LO:DY:a	!	!	!LO:DY:a
4C\	4e/	8cn\L	.	4cn/	al-	f	4e/	al-	f
.	.	8B-\J	.	.	.	.	.	.	.
4FF\ 4F	4f/	4A\	.	4c/	-le-	.	4f/	-le-	.
8C/L	4g/	4e\	.	4e/	-lu-	.	4g/	-lu-	.
8BB-/J	.	.	.	.	.	.	.	.	.
4AA/	4a/	4f\	.	4f/	-ia	.	4a/	-ia	.
=8	=8	=8	=8	=8	=8	=8	=8	=8	=8
4GG/	4b-/	2d\	.	4d/	al-	.	4b-/	al-	.
8AA/L	8a/L	.	.	4d/	-le-	.	(8a/L	-le-	.
8BB-/J	8g/J	.	.	.	.	.	8g/J)	.	.
4C/	8.cc/L	4e\	.	4e/	-lu-	.	(8.cc/L	-lu-	.
.	16b-/Jk	.	.	.	.	.	16b-/Jk)	.	.
4FF;</ 4F	4a;/	4f\	.	4f;/	-ia	.	4a;/	-ia	.
!LO:LB:g=original	!LO:LB:g=original	!LO:LB:g=original	!	!LO:LB:g=original	!	!	!LO:LB:g=original	!	!
*	*v	*v	*	*	*	*	*	*	*
=9	=9	=9	=9	=9	=9	=9	=9	=9
*^	*	*	*	*	*	*	*	*
!	!	!	!	!	!	!LO:DY:a	!	!	!LO:DY:a
4A/	2AA\	4e/ 4a	p	4e/	Tri-	p	4a/	Tri-	p
4G/	.	4c#X/ 4a	.	4c#X/	-om-	.	4a/	-om-	.
4F/	4D\	4d/ 4a	.	4d/	-phant	.	4a/	-phant	.
4ryy	8D\L	4f/ 4a	.	4f/	il	.	4a/	il	.
.	8C\J	.	.	.	.	.	.	.	.
*v	*v	*	*	*	*	*	*	*	*
=10	=10	=10	=10	=10	=10	=10	=10	=10
*	*^	*	*	*	*	*	*	*
2BB-/	8g/L	[>4d\ [4e	.	4e/	re-	.	(8g/L	re-	.
.	8a/J	.	.	.	.	.	8a/J)	.	.
.	4g/	4d\] 4e]	.	4f/	-tourne	.	4g/	-tourne	.
4AA/	4f/	4d\	.	4d/	au	.	4f/	au	.
4AA\ 4A	4e/	4c#X\	.	4c#X/	ciel	.	4e/	ciel	.
=11	=11	=11	=11	=11	=11	=11	=11	=11	=11
*^	*	*	*	*	*	*	*	*	*
4A/	2AA\	4e/	4c#X\	.	4c#X/	Cé-	.	4e/	Cé-	.
4G/	.	4e/	4c#\	.	4c#/	-lé-	.	4e/	-lé-	.
4D/ 4F	2ryy	4d/ 4f 4a	2ryy	.	4f/	-brons	.	4a/	-brons	.
!LO:TUP:b	!	!LO:TUP:b	!	!	!LO:TUP:b	!	!	!LO:TUP:b	!	!
12AA/L	.	12g/L	.	.	(12e/L	son	.	(12g/L	son	.
12BBn/	.	12f/	.	.	12d/	.	.	12f/	.	.
12C#X/J	.	12e/J	.	.	12c#/J)	.	.	12e/J)	.	.
*	*	*v	*v	*	*	*	*	*	*	*
=12	=12	=12	=12	=12	=12	=12	=12	=12	=12
!	!	!LO:TX:b:t=rall.	!	!LO:TX:a:t=rall.	!	!	!LO:TX:a:t=rall.	!	!
4D/	2ryy	8d/L	.	(8d/L	regne	.	(8d/L	regne	.
.	.	8c#X/J 8e	.	8c#X/J)	.	.	8e/J)	.	.
8BB-/L	.	4d/ 4f	.	4d/	im-	.	4f/	im-	.
8GG/J	.	.	.	.	.	.	.	.	.
8A/L	4AA\	4c#X/	.	4e/	-mor-	.	4c#X/	-mor-	.
8G/J	.	.	.	.	.	.	.	.	.
4F;/	4D\	4d;/	.	4d;/	-tel	.	4d;/	-tel	.
!LO:PB:g=original	!LO:PB:g=original	!LO:PB:g=original	!	!LO:PB:g=original	!	!	!LO:PB:g=original	!	!
*v	*v	*	*	*	*	*	*	*	*
=13	=13	=13	=13	=13	=13	=13	=13	=13
*	*^	*	*	*	*	*	*	*
!	!	!	!	!	!	!LO:DY:a	!	!	!LO:DY:a
4C\	4e/	8cn\L	f	4cn/	al-	f	4e/	al-	f
.	.	8B-\J	.	.	.	.	.	.	.
!	!LO:TX:b:t=a tempo.	!	!	!LO:TX:a:t=a tempo.	!	!	!LO:TX:a:t=a tempo.	!	!
4FF\ 4F	4f/	4A\	.	4c/	-le-	.	4f/	-le-	.
8C/L	4g/	4e\	.	4e/	-lu-	.	4g/	-lu-	.
8BB-/J	.	.	.	.	.	.	.	.	.
4AA/	4a/	4f\	.	4f/	-ia	.	4a/	-ia	.
=14	=14	=14	=14	=14	=14	=14	=14	=14	=14
4GG/	4b-/	4d\	.	4d/	al-	.	4b-\	al-	.
!	!LO:TX:b:t=rall.	!	!	!LO:TX:a:t=rall.	!	!	!LO:TX:a:t=rall.	!	!
4DD^/ 4D	4f^/ 4a	4d\	.	4f/	-le-	.	4a/	-le-	.
4BBB-^/ 4BB-	4g^/	4d\	.	4d/	-lu-	.	4g/	-lu-	.
4AAA^/ 4AA	4a^;/	4c#X\	sf	4c#X;/	-ia	.	4a;/	-ia	.
*	*v	*v	*	*	*	*	*	*	*
=15||	=15||	=15||	=15||	=15||	=15||	=15||	=15||	=15||
!	!	!	!	!	!LO:DY:a	!LO:TX:a:t=2e. STROPHE.	!	!LO:DY:a
2DD/ 2D	4d/ 4f	p	4d/	Som-	p	4f/	Som-	p
.	8d/L 8f	.	(8d/L	-bre	.	(8f/L	-bre	.
.	8e/J 8g	.	8e/J)	.	.	8g/J)	.	.
2DD/ 2D	4f/ 4a	.	4f/	mort	.	4a/	mort	.
.	4f/ 4a	.	4f/	ton	.	4a/	ton	.
=16	=16	=16	=16	=16	=16	=16	=16	=16
*^	*	*	*	*	*	*	*	*
2C#X/	2DD/	8e/L 8g	.	(8e/L	pou-	.	(8g/L	pou-	.
.	.	8f/J 8a	.	8f/J)	.	.	8a/J)	.	.
.	.	4e/ 4g	.	4e/	-voir	.	4g/	-voir	.
4D/	4DD\	4d/ 4f	.	4d/	n'est	.	4f/	n'est	.
4AA/	4AA\	4c#X/ 4e	.	4c#X/	plus	.	4e;/	plus	.
=17	=17	=17	=17	=17	=17	=17	=17	=17	=17
4A/	2AA\	4c#X/ 4e	.	4c#X/	de	.	4e/	de	.
4G/	.	4c#/ 4e	.	4c#/	l'en-	.	4e/	l'en-	.
4F/	4D\	4d/ 4f 4a	.	4d/	-fer	.	4a/	-fer	.
!	!	!	!	!LO:TUP:b	!	!	!LO:TUP:b	!	!
12AA/L	4ryy	12e/L 12g	.	(12e/L	les	.	(12g/L	les	.
12BBn/	.	12d/ 12f	.	12d/	.	.	12f/	.	.
12C#X/J	.	12A/J 12e	.	12A/J)	.	.	12e/J)	.	.
!LO:LB:g=original	!LO:LB:g=original	!LO:LB:g=original	!	!LO:LB:g=original	!	!	!LO:LB:g=original	!	!
=18	=18	=18	=18	=18	=18	=18	=18	=18	=18
4D/	2ryy	8d/L	.	(8d/L	feux	.	(8d/L	feux	.
.	.	8e/J	.	8c#X/J)	.	.	8e/J)	.	.
!	!	!	!	!	!	!	!	!	!LO:DY:a
4BB-/	.	4d/ 4f	.	4d/	sont	.	4f/	sont	p
8A/L	4AA\	4c#X/	.	4A/	vain-	.	4c#X/	vam-	.
8G/J	.	.	.	.	.	.	.	.	.
4F/	4D;\	4d;/	.	4d;/	-cus	.	4d;/	-cus	.
*v	*v	*	*	*	*	*	*	*	*
=19	=19	=19	=19	=19	=19	=19	=19	=19
*	*^	*	*	*	*	*	*	*
!	!	!	!	!	!	!LO:DY:a	!	!	!LO:DY:a
4C/	4e/	8cn\L	.	(8cn/L	al-	f	4e/	al-	f
.	.	8B-\J	.	8B-/J)	.	.	.	.	.
4FF/ 4F	4f/	4A\	.	4A/	-le-	.	4f/	-le-	.
8C/L	4g/	4e\	.	4e/	-lu-	.	4g/	-lu-	.
8BB-/J	.	.	.	.	.	.	.	.	.
4AA/	4a/	4f\	.	4f/	-ia	.	4a/	-ia	.
=20	=20	=20	=20	=20	=20	=20	=20	=20	=20
4GG/	4b-/	2d\	.	4d/	al-	.	4b-/	al-	.
8AA/L	8a/L	.	.	4d/	-le-	.	(8a/L	-le-	.
8BB-/J	8g/J	.	.	.	.	.	8g/J)	.	.
4C/	8.cc/L	4e\	.	4e/	-lu-	.	(8.cc\L	-lu-	.
.	16b-/Jk	.	.	.	.	.	16b-\Jk)	.	.
4FF;</ 4F	4a;/	4f\	.	4f;/	-ia	.	4a;/	-ia	.
*	*v	*v	*	*	*	*	*	*	*
=21	=21	=21	=21	=21	=21	=21	=21	=21
*^	*	*	*	*	*	*	*	*
!	!	!	!	!	!	!	!	!	!LO:DY:a
4A/	2AA\	4e/ 4a	.	4e/	le	.	4a/	le	mf
4G/	.	4c#X/ 4a	.	4c#X/	seul	.	4a/	seul	.
4F/	4D\	4d/ 4a	.	4d/	fort	.	4a/	fort	.
4ryy	8D\L	4f/ 4a	.	4f/	le	.	4a/	le	.
.	8C\J	.	.	.	.	.	.	.	.
!LO:LB:g=original	!LO:LB:g=original	!LO:LB:g=original	!	!LO:LB:g=original	!	!	!LO:LB:g=original	!	!
*v	*v	*	*	*	*	*	*	*	*
=22	=22	=22	=22	=22	=22	=22	=22	=22
*	*^	*	*	*	*	*	*	*
2BB-/	8g/L	[4d\ [4e	.	4e/	seul	.	(8g/L	seul	.
.	8a/J	.	.	.	.	.	8a/J)	.	.
.	4g/	4d\] 4e]	.	4e/	glo-	.	4g/	glo-	.
4AA/	4f/	4d\	.	4d/	-ri-	.	4f/	-ri-	.
4AA/ 4A	4e/	4c#X\	.	4c#X/	-eux	.	4e;/	-eux	.
=23	=23	=23	=23	=23	=23	=23	=23	=23	=23
*^	*	*	*	*	*	*	*	*	*
4A/	2AA\	4e/	4c#X\	.	4c#X/	de	.	4e/	de	.
4G/	.	4e/	4c#\	.	4c#/	son	.	4e/	son	.
4F/	4D\	4d/ 4f 4a	2ryy	.	4f/	nom	.	4a/	nom	.
!LO:TUP:b	!	!LO:TUP:b	!	!	!LO:TUP:b	!	!	!LO:TUP:b	!	!
12AA/L	4ryy	12g/L	.	.	(12e/L	rem-	.	(12g/L	rem-	.
12BBn/	.	12f/	.	.	12d/	.	.	12f/	.	.
12C#X/J	.	12e/J	.	.	12c#/J)	.	.	12e/J)	.	.
*	*	*v	*v	*	*	*	*	*	*	*
=24	=24	=24	=24	=24	=24	=24	=24	=24	=24
4D/	2ryy	8d/L	.	4d/	-pli-	.	(8d/L	-pli-	.
.	.	8c#X/J 8e	.	.	.	.	8e/J)	.	.
!	!	!	!	!	!	!LO:DY:a	!	!	!LO:DY:a
8BB-/L	.	4d/ 4f	.	4d/	-ra	p	4f/	-ra	p
8GG/J	.	.	.	.	.	.	.	.	.
8A/L	4AA\	4c#X/	.	4e/	les	.	4c#X/	les	.
8G/J	.	.	.	.	.	.	.	.	.
4F;/	4D\	4d;/	.	4d;/	cieux	.	4d;/	cieux	.
*v	*v	*	*	*	*	*	*	*	*
=25	=25	=25	=25	=25	=25	=25	=25	=25
*	*^	*	*	*	*	*	*	*
!	!	!	!	!	!	!	!	!	!LO:DY:a
4C/	4e/	8cn\L	.	(8cn/L	al-	.	4e/	al-	f
.	.	8B-\J	.	8B-/J)	.	.	.	.	.
4FF/ 4F	4f/	4A\	.	4A/	-le-	.	4f/	-le-	.
8C/L	4g/	4e\	.	4e/	-lu-	.	4g/	-lu-	.
8BB-/J	.	.	.	.	.	.	.	.	.
4AA/	4a/	4f\	.	4f/	-ia	.	4a/	-ia	.
=26	=26	=26	=26	=26	=26	=26	=26	=26	=26
4GG/	4b-/	4d\	.	4d/	al-	.	4b-\	al-	.
4DD^/ 4D	4f^/ 4a	4d\	.	4f/	-le-	.	4a/	-le-	.
4BBB-^/ 4BB-	4g^/	4d\	.	4d/	-lu-	.	4g/	-lu-	.
4AAA^/ 4AA	4a;^/	4c#X\	.	4c#X;/	-ia	.	4a;/	-ia	.
*	*v	*v	*	*	*	*	*	*	*
==	==	==	==	==	==	==	==	==
*-	*-	*-	*-	*-	*-	*-	*-	*-
!!!RDF**kern: > = above
!!!RDF**kern: < = below
!!!system-decoration: [(s1,s2)][(s3,s4)]
!!!ENC: Andrzej Gręziak
!!!END: 2022-08-09
!!!ENC: Julita Ruszuk
!!!END: 2022-09-05
!!!YEC: Copyright 2022 Narodowy Instytut Fryderyka Chopina (https://polishscores.org)
!!!YEM: License CC-BY-4.0 (https://creativecommons.org/licenses/by/4.0)
